X:84
T:Polska efter C G {\AA}strand
R:sl\"angpolska
H:efter hans fru och hennes mormor
A:\"Osterg\"otland
B:SvL \"Ogl 472, efter C G {\AA}strand, Falla, Horn
Z:id:hn-sp-84
M:3/4
L:1/16
K:C ^f
g4 g2{ag}e2 c2a2 | (a2g2) g2f2 f2ef | g2ag e2ge c2c2 | c2{d}BA G4 G4 |
g4 g2{ag}e2 c2a2 | (a2g2) g2f2 f2ef | g2ag e2ge c2c2 | c2{d}BA G4 c4 :|
|: (dc)BA [G2G,2]B2 [G2G,2]B2 | [G2G,2]B2 cBAB c4 |
(dc)BA [G2G,2]B2 [G2G,2]B2 | [G2G,2]B2 cBAB c4 |
a2g2 f2{gf}e2 d2c2 | (cB)AB G4 c4 :|
<end>
<start>
